X: 7
T: W Tobie ja samym, Panie, człowiek smutny,
C: Mikołaj Gomółka
%%abc-version 2.0
%%abcx-abcm2ps-target-version 5.9.1 (29 Sep 2008)
%%abc-creator hum2abc beta
%%abcx-conversion-date 2021/10/04 07:59:09
%%abc-edited-by Anna Matuszewska
%%abcx-initial-encoding-date 2020-02-04
%%humdrum-veritas 1349332693
%%humdrum-veritas-data 2619528852
%%linebreak <none>
%%barnumbers 0
L: 1/4
M: C|
N: Derived from pl-wn--sd-xvi-qu-273--007_gomolka-mikolaj--w-tobie-ja-samym-panie-czlowiek-smutny.krn
%%staves [1 2 3 4]
V: 1
V: 2
V: 3
V: 4
K: F
[V:1] d4d2d2 [|] 
[V:2] B4B2B2 [|] 
[V:3] G4F2G2 [|] 
[V:4] G,4B,2G,2 [|] 
[V:1] e4f2d2 [|] 
[V:2] G2c2F2B2 [|] 
[V:3] E4D2F2 [|] 
[V:4] C4B,2B,,2 [|] 
[V:1] ^c2d2d2^c2 [|] 
[V:2] A2A2A3G [|] 
[V:3] F2F2E2E2 [|] 
[V:4] F,2D,2A,,2A,,2 [|] 
[V:1] d2G2B2A2 [|] 
[V:2] F2C2G2F2 [|] 
[V:3] D2B,2E2C2 [|] 
[V:4] D,2G,2_E,2F,2 [|] 
[V:1] G4F2G2 [|] 
[V:2] D2_E2D2B,2 [|] 
[V:3] B,2C2A,2G,2 [|] 
[V:4] G,2C,2D,2E,2 [|] 
[V:1] EFGEF2G4 [|] 
[V:2] C2G,2D2C2 [|] 
[V:3] C2>B,2A,2G,2 [|] 
[V:4] C,4D,2E,2 [|] 
[V:1] F2G2 :|]|:  
[V:2] D2>C2B,2 :|]|:  
[V:3] A,4!arpeggio!G,2 :|]|:  
[V:4] D,4G,2 :|]|:  
[V:1] d2 [I:setbarnb 8][|] 
[V:2] B2 [|] 
[V:3] D2 [|] 
[V:4] B,2 [|] 
[V:1] c2B4A2 [|] 
[V:2] G2D_EFEDC [|] 
[V:3] _EDCB,C4 [|] 
[V:4] E,2G,2F,4 [|] 
[V:1] B2A2B2A2 [|] 
[V:2] D2D2D2D2 [|] 
[V:3] B,2F,2G,2A,2 [|] 
[V:4] B,,2D,2G,2^F,2 [|] 
[V:1] B2c2A2B2 [|] 
[V:2] G2F_EF2F2 [|] 
[V:3] D2_E2D2D2 [|] 
[V:4] G,2C,2D,2[K:clef=perc]B,,2 [|] 
[V:1] B2A2G4 [|] 
[V:2] F2F2D4 [|] 
[V:3] D2C2B,4 [|] 
[V:4] B,,2F,,2G,,A,,B,,C, [|] 
[V:1] ^F2A4c2 [|] 
[V:2] D2F4G2 [|] 
[V:3] A,2D2C2_E2 [|] 
[V:4] D,2D,2F,2C,2 [|] 
[V:1] G2B4AG [|] 
[V:2] _E4B,3C [|] 
[V:3] B,4G,4 [|] 
[V:4] E,8 [|] 
[V:1] ^F2G4F2 [|] 
[V:2] D4D3C [|] 
[V:3] A,8 [|] 
[V:4] D,8 [|] 
[V:1] !fermata!G8 |]  
[V:2] !fermata!=B,8 |]  
[V:3] !fermata!G,8 |]  
[V:4] !fermata!G,,8 |]  


